X:1
T:Was wollen wir trinken 
T:Willie's Lady
T:Son ar Chiste
M:3/4
F:http://www.wtower.de/lied/wwwtrink.htm
Z:Simon  2004-8-21
L:1/8
K:Em
P:A
"D" A (3AGF |: "Em" G2 E2 EA | "D" AG FA (3AGF | "Em" G2 E2 "D" FD : |1
"Em" E3 A "D" (3AGF :|2 "Em" E3 EGA ::
P:B
|: "G" B2 B2 "Am" cA | "D" B3 A  (3AGF | "Em" G2E2 EA | "D" AGFA  (3AGF
| "Em" G2E2 "D" FD |1 "Em" E3 EGA :|2 "Em" E3 z3 ||
